X:167
T: IN EINEM THAL BEI ARMEN HIRTEN
N: F0303
O: Europa, Mitteleuropa, Deutschland
R: Jugend - Lied
M: 4/4
L: 1/16
K: Bb
F2=E2F2 | B8z2B2A2B2 | =B2c2c4z2
e2d2c2 | B4A2B2c4f2e2 | d8z2
d2e2f2 | f4e2d2f4e2d2 | c3ee4z2
e2d2c2 | B6B2c4f2e2 | d8z2
e2d2c2 | f4g2e2c2B4d2c2B2 | B8z2

